X:1
T:What Do You Want To Make Those Eyes At Me For?
T:What Do You Want to Make Those Eyes At Me For
C:Howard Johnson, Jimmy Monaco, Joe McCarthy
Z:All Rights Reserved
L:1/8
Q:1/4=120
M:4/4
K:Eb
V:1 treble nm="MusicXML Part"
%%MIDI program 0
%%MIDI control 7 102
%%MIDI control 10 64
V:1
 (3BcB =A>c B2 e2 | d =B2 c- c4 | (3ABA G>B A2 d2 | c _c2 B4 G | B>B A>G B>B A>G | c A2 c3 c2 | %6
w: Fun- ni- est pair of eyes I've|ev- er seen, _|Fun- ny I can't get wise to|what they mean, I|wish that I can un- der- stand the|things they say, Each|
w: Why don't you try to make your|eyes be- have, _|They seem to make me act just|like a slave, For|when they say to run a- way, I've|al- ways found The|
 c>c B>=A c>c B>A | d B2 d- d4 | (3BcB =A>c B2 e2 | d =B2 c- c4 | (3A_cA G>B A2 d2 | c =B2 _B4 B | %12
w: time I try to go, they seem to|make me stay. _|May- be, it's just be- cause you|love to flirt, _|May- be you want to see my|feel- ings hurt, You've|
w: chanc- es are, they mean that I should|stick a- round. _|Tho' I ad- mit your eyes are|full of charm, _|Some- how I feel they mean to|do me harm, Some|
 =A>B c>A G2 A2 | G F2 d4 d | d>c =B>c e2 =A2 | B4- B x3 ||"^Chorus" x5"Eb" c (3de=e |: %17
w: got me run- ning 'round you|like a child, Some|day you're goin' to drive me|wild. _|So, what do you|
w: day if I don't ans- wer|when they call, You'll|have to blame your eyes, that's|all. _||
"Bb" f>d B>=A _A2 G2 | G2 F4 d>B |"Eb" c2 A2 G2 A2 | B4- B3 B |"F" B A2 F4 G | A e2 d4 B | %23
w: want to make those eyes at|me for, When they|don't mean what they|say? _ They|make me glad, they|make me sad, They|
w: ||||||
 c>=B c>B c>d e>=e |"Bb" f d2 B- B3/2 c/ (3de=e |"Ab" f>"Bb"d B>=A _A2 G2 | G2 F4 B2 | %27
w: make me want a lot of things I've|nev- er had. _ So what do you|want to fool a- round with|me for? You|
w: ||||
"Ab" c>c c>c c>c =B>c |"Bb" d4- d7/2 d/ |"Gm" e2 c2"Ab" c3 c |"Eb" (3cdc =B>d c>B"Gm7" c>^c | %31
w: lead me on, and then you run a-|way, _ But,|nev- er mind I'll|get you a- lone some night and then you'll|
w: ||||
 d2 B2"Eb" B3 B | (3BcB =A>c B>c (3de=e |"Bb" f>d B>=A _A2 G2 | G2 F4 e>g |"Ab" e2 d2"Bb" c2 d2 |1 %36
w: sure- ly find, You're|flirt- ing with dy- na- mite, So what do you|want to make those eyes at|me for, When they|don't mean what they|
w: |||||
"Eb" e4- e-e/c/ (3dee :|2"Eb" e6 |] %38
w: say? _ _ so what do you|say?|
w: ||

